src/assets/outline/MoneyTick.svg

<svg width="24" height="24" viewBox="0 0 24 24"  xmlns="http://www.w3.org/2000/svg">
<path d="M12 15.25C10.21 15.25 8.75 13.79 8.75 12C8.75 10.21 10.21 8.75 12 8.75C13.79 8.75 15.25 10.21 15.25 12C15.25 13.79 13.79 15.25 12 15.25ZM12 10.25C11.04 10.25 10.25 11.04 10.25 12C10.25 12.96 11.04 13.75 12 13.75C12.96 13.75 13.75 12.96 13.75 12C13.75 11.04 12.96 10.25 12 10.25Z" />
<path d="M18.5 15.25C18.09 15.25 17.75 14.91 17.75 14.5V9.5C17.75 9.09 18.09 8.75 18.5 8.75C18.91 8.75 19.25 9.09 19.25 9.5V14.5C19.25 14.91 18.91 15.25 18.5 15.25Z" />
<path d="M5 22.75C3.34 22.75 1.78 21.87 0.940002 20.44C0.490002 19.72 0.25 18.87 0.25 18C0.25 15.38 2.38 13.25 5 13.25C7.62 13.25 9.75 15.38 9.75 18C9.75 18.87 9.51 19.72 9.06 20.45C8.22 21.87 6.66 22.75 5 22.75ZM5 14.75C3.21 14.75 1.75 16.21 1.75 18C1.75 18.59 1.91 19.17 2.22 19.67C2.8 20.65 3.87 21.25 5 21.25C6.13 21.25 7.2 20.65 7.78 19.68C8.09 19.17 8.25 18.6 8.25 18C8.25 16.21 6.79 14.75 5 14.75Z" />
<path d="M4.42987 19.7401C4.23987 19.7401 4.04987 19.6701 3.89987 19.5201L2.90988 18.5301C2.61988 18.2401 2.61988 17.76 2.90988 17.47C3.19988 17.18 3.67988 17.18 3.96988 17.47L4.44989 17.9501L6.04987 16.47C6.34987 16.19 6.82986 16.2101 7.10986 16.5101C7.38986 16.8101 7.36989 17.2901 7.06989 17.5701L4.93988 19.54C4.78988 19.67 4.60987 19.7401 4.42987 19.7401Z" />
<path d="M17 20.75H8.5C8.09 20.75 7.75 20.41 7.75 20C7.75 19.59 8.09 19.25 8.5 19.25H17C19.86 19.25 21.25 17.86 21.25 15V9C21.25 6.14 19.86 4.75 17 4.75H7C4.14 4.75 2.75 6.14 2.75 9V15.3C2.75 15.71 2.41 16.05 2 16.05C1.59 16.05 1.25 15.71 1.25 15.3V9C1.25 5.35 3.35 3.25 7 3.25H17C20.65 3.25 22.75 5.35 22.75 9V15C22.75 18.65 20.65 20.75 17 20.75Z" />
</svg>

<?xml version="1.0" encoding="UTF-8"?>
<svg width="24" height="24" viewBox="0 0 24 24" xmlns="http://www.w3.org/2000/svg">
 <path d="m12 15.25c-1.79 0-3.25-1.46-3.25-3.25s1.46-3.25 3.25-3.25 3.25 1.46 3.25 3.25-1.46 3.25-3.25 3.25zm0-5c-0.96 0-1.75 0.79-1.75 1.75s0.79 1.75 1.75 1.75 1.75-0.79 1.75-1.75-0.79-1.75-1.75-1.75z"/>
 <path d="m18.5 15.25c-0.41 0-0.75-0.34-0.75-0.75v-5c0-0.41 0.34-0.75 0.75-0.75s0.75 0.34 0.75 0.75v5c0 0.41-0.34 0.75-0.75 0.75z"/>
 <path d="m5 22.75c-1.66 0-3.22-0.88-4.06-2.31-0.45-0.72-0.69-1.57-0.69-2.44 0-2.62 2.13-4.75 4.75-4.75s4.75 2.13 4.75 4.75c0 0.87-0.24 1.72-0.69 2.45-0.84 1.42-2.4 2.3-4.06 2.3zm0-8c-1.79 0-3.25 1.46-3.25 3.25 0 0.59 0.16 1.17 0.47 1.67 0.58 0.98 1.65 1.58 2.78 1.58s2.2-0.6 2.78-1.57c0.31-0.51 0.47-1.08 0.47-1.68 0-1.79-1.46-3.25-3.25-3.25z"/>
 <path d="m4.4299 19.74c-0.19 0-0.38-0.07-0.53-0.22l-0.98999-0.99c-0.29-0.29-0.29-0.7701 0-1.0601s0.77-0.29 1.06 0l0.48001 0.4801 1.6-1.4801c0.3-0.28 0.77999-0.2599 1.06 0.0401s0.26003 0.78-0.03997 1.06l-2.13 1.9699c-0.15 0.13-0.33001 0.2001-0.51001 0.2001z"/>
 <path d="m17 20.75h-8.5c-0.41 0-0.75-0.34-0.75-0.75s0.34-0.75 0.75-0.75h8.5c2.86 0 4.25-1.39 4.25-4.25v-6c0-2.86-1.39-4.25-4.25-4.25h-10c-2.86 0-4.25 1.39-4.25 4.25v6.3c0 0.41-0.34 0.75-0.75 0.75s-0.75-0.34-0.75-0.75v-6.3c0-3.65 2.1-5.75 5.75-5.75h10c3.65 0 5.75 2.1 5.75 5.75v6c0 3.65-2.1 5.75-5.75 5.75z"/>
</svg>
